community/site/assets/slack.svg

<svg fill="none" height="138" viewBox="0 0 160 138" width="160" xmlns="http://www.w3.org/2000/svg"><path d="m59.1309 86.743 1.2987-3.0423c1.4233 1.0497 3.2737 1.6012 5.124 1.6012 1.3521 0 2.2239-.5337 2.2239-1.3344-.0356-2.2239-8.1841-.4981-8.2552-6.1024-.0356-2.8466 2.5086-5.0528 6.0846-5.0528 2.135 0 4.27.5338 5.7822 1.7258l-1.2098 3.0957c-1.3877-.8896-3.1135-1.5123-4.7503-1.5123-1.1208 0-1.8503.5338-1.8503 1.2098.0356 2.2062 8.2552.9964 8.3442 6.3516 0 2.9178-2.473 4.946-5.9957 4.946-2.5976.0356-4.9816-.5871-6.7963-1.8859zm51.6841-4.1276c-.676 1.192-1.922 1.9215-3.274 1.9215-2.081 0-3.771-1.6902-3.771-3.7718s1.69-3.7718 3.771-3.7718c1.352 0 2.616.7294 3.274 1.9215l3.612-2.0105c-1.353-2.4196-3.932-4.0564-6.886-4.0564-4.359 0-7.8991 3.5405-7.8991 7.9172s3.5401 7.9172 7.8991 7.9172c2.954 0 5.533-1.6368 6.886-4.0565zm-36.5436 5.7288h4.519v-22.0969h-4.519zm42.4326-22.0969v22.0969h4.519v-6.6184l5.355 6.6184h5.765l-6.797-7.8638 6.298-7.3478h-5.515l-5.106 6.1024v-13.0055h-4.519zm-24.0185 6.9031v1.7969c-.7473-1.2454-2.562-2.0994-4.4835-2.0994-3.9497 0-7.081 3.5049-7.081 7.8994s3.1135 7.935 7.081 7.935c1.9215 0 3.7362-.8718 4.4835-2.0994v1.7969h4.519v-15.2117h-4.519zm0 9.4828c-.6405 1.0853-2.0105 1.8859-3.5227 1.8859-2.0816 0-3.7718-1.6902-3.7718-3.7718s1.6902-3.7718 3.7718-3.7718c1.5122 0 2.8822.8362 3.5227 1.9571z" fill="#000"/><path d="m35.2901 65.7671c-1.4589 0-2.6509 1.192-2.6509 2.6509s1.192 2.6509 2.6509 2.6509h2.6509v-2.6509c0-1.4589-1.1742-2.6509-2.6509-2.6509zm0 7.0632h-7.0454c-1.4589 0-2.6509 1.192-2.6509 2.6509s1.192 2.6509 2.6509 2.6509h7.0632c1.4589 0 2.6509-1.192 2.6509-2.6509-.0178-1.4589-1.192-2.6509-2.6687-2.6509z" fill="#36c5f0"/><path d="m52.0677 75.4809c0-1.4589-1.1921-2.6509-2.651-2.6509-1.4588 0-2.6509 1.192-2.6509 2.6509v2.651h2.6509c1.4589.0177 2.651-1.1743 2.651-2.651zm-7.0632 0v-7.081c0-1.4589-1.192-2.6509-2.6509-2.6509s-2.651 1.192-2.651 2.6509v7.081c0 1.4589 1.1921 2.651 2.651 2.651 1.4766.0177 2.6509-1.1743 2.6509-2.651z" fill="#2eb67d"/><path d="m42.3536 92.294c1.4589 0 2.6509-1.1921 2.6509-2.651s-1.192-2.6509-2.6509-2.6509h-2.651v2.6509c0 1.4589 1.1921 2.651 2.651 2.651zm0-7.081h7.0631c1.4589 0 2.651-1.1921 2.651-2.6509 0-1.4589-1.1921-2.651-2.651-2.651h-7.0631c-1.4589 0-2.651 1.1921-2.651 2.651 0 1.4588 1.1921 2.6509 2.651 2.6509z" fill="#ecb22e"/><path d="m25.5938 82.5621c0 1.4588 1.192 2.6509 2.6509 2.6509s2.6509-1.1921 2.6509-2.6509v-2.651h-2.6509c-1.4767 0-2.6509 1.1921-2.6509 2.651zm7.0631 0v7.0809c0 1.4589 1.1921 2.651 2.651 2.651s2.6509-1.1921 2.6509-2.651v-7.0809c0-1.4589-1.192-2.651-2.6509-2.651-1.4767 0-2.651 1.1921-2.651 2.651z" fill="#e01e5a"/></svg>

<svg width="160" height="138" viewBox="0 0 160 138" fill="none" xmlns="http://www.w3.org/2000/svg">
<path d="M59.1309 86.743L60.4296 83.7007C61.8529 84.7504 63.7033 85.3019 65.5536 85.3019C66.9057 85.3019 67.7775 84.7682 67.7775 83.9675C67.7419 81.7436 59.5934 83.4694 59.5223 77.8651C59.4867 75.0185 62.0309 72.8123 65.6069 72.8123C67.7419 72.8123 69.8769 73.3461 71.3891 74.5381L70.1793 77.6338C68.7916 76.7442 67.0658 76.1215 65.429 76.1215C64.3082 76.1215 63.5787 76.6553 63.5787 77.3313C63.6143 79.5375 71.8339 78.3277 71.9229 83.6829C71.9229 86.6007 69.4499 88.6289 65.9272 88.6289C63.3296 88.6645 60.9456 88.0418 59.1309 86.743ZM110.815 82.6154C110.139 83.8074 108.893 84.5369 107.541 84.5369C105.46 84.5369 103.77 82.8467 103.77 80.7651C103.77 78.6835 105.46 76.9933 107.541 76.9933C108.893 76.9933 110.157 77.7227 110.815 78.9148L114.427 76.9043C113.074 74.4847 110.495 72.8479 107.541 72.8479C103.182 72.8479 99.6419 76.3884 99.6419 80.7651C99.6419 85.1418 103.182 88.6823 107.541 88.6823C110.495 88.6823 113.074 87.0455 114.427 84.6258L110.815 82.6154ZM74.2714 88.3442H78.7904V66.2473H74.2714V88.3442ZM116.704 66.2473V88.3442H121.223V81.7258L126.578 88.3442H132.343L125.546 80.4804L131.844 73.1326H126.329L121.223 79.235V66.2295H116.704V66.2473ZM92.6855 73.1504V74.9473C91.9382 73.7019 90.1235 72.8479 88.202 72.8479C84.2523 72.8479 81.121 76.3528 81.121 80.7473C81.121 85.1418 84.2345 88.6823 88.202 88.6823C90.1235 88.6823 91.9382 87.8105 92.6855 86.5829V88.3798H97.2045V73.1681H92.6855V73.1504ZM92.6855 82.6332C92.045 83.7185 90.675 84.5191 89.1628 84.5191C87.0812 84.5191 85.391 82.8289 85.391 80.7473C85.391 78.6657 87.0812 76.9755 89.1628 76.9755C90.675 76.9755 92.045 77.8117 92.6855 78.9326V82.6332Z" fill="black"/>
<path d="M35.2901 65.7671C33.8312 65.7671 32.6392 66.9591 32.6392 68.418C32.6392 69.8769 33.8312 71.0689 35.2901 71.0689H37.941V68.418C37.941 66.9591 36.7668 65.7671 35.2901 65.7671ZM35.2901 72.8303H28.2447C26.7858 72.8303 25.5938 74.0223 25.5938 75.4812C25.5938 76.9401 26.7858 78.1321 28.2447 78.1321H35.3079C36.7668 78.1321 37.9588 76.9401 37.9588 75.4812C37.941 74.0223 36.7668 72.8303 35.2901 72.8303Z" fill="#36C5F0"/>
<path d="M52.0677 75.4809C52.0677 74.022 50.8756 72.83 49.4167 72.83C47.9579 72.83 46.7658 74.022 46.7658 75.4809V78.1319H49.4167C50.8756 78.1496 52.0677 76.9576 52.0677 75.4809ZM45.0045 75.4809V68.3999C45.0045 66.941 43.8125 65.749 42.3536 65.749C40.8947 65.749 39.7026 66.941 39.7026 68.3999V75.4809C39.7026 76.9398 40.8947 78.1319 42.3536 78.1319C43.8302 78.1496 45.0045 76.9576 45.0045 75.4809Z" fill="#2EB67D"/>
<path d="M42.3536 92.294C43.8125 92.294 45.0045 91.1019 45.0045 89.643C45.0045 88.1841 43.8125 86.9921 42.3536 86.9921H39.7026V89.643C39.7026 91.1019 40.8947 92.294 42.3536 92.294ZM42.3536 85.213H49.4167C50.8756 85.213 52.0677 84.0209 52.0677 82.5621C52.0677 81.1032 50.8756 79.9111 49.4167 79.9111H42.3536C40.8947 79.9111 39.7026 81.1032 39.7026 82.5621C39.7026 84.0209 40.8947 85.213 42.3536 85.213Z" fill="#ECB22E"/>
<path d="M25.5938 82.5621C25.5938 84.0209 26.7858 85.213 28.2447 85.213C29.7036 85.213 30.8956 84.0209 30.8956 82.5621V79.9111H28.2447C26.768 79.9111 25.5938 81.1032 25.5938 82.5621ZM32.6569 82.5621V89.643C32.6569 91.1019 33.849 92.294 35.3079 92.294C36.7668 92.294 37.9588 91.1019 37.9588 89.643V82.5621C37.9588 81.1032 36.7668 79.9111 35.3079 79.9111C33.8312 79.9111 32.6569 81.1032 32.6569 82.5621Z" fill="#E01E5A"/>
</svg>
